X: 25432
T: Marcha De Breixo
R: reel
M: 4/4
K: Ddorian
B2 d2 d2 d2|c2 e2 e2 f2|g2 d2dcBA|Bc d2d4|
B2 d2 d2 d2|c2 e2 e2 f2|g2 d2dcBA|Bc d2 Bd/B/ (G2|G8)||
GB A2 A3 B|dccB BA^FG|A4 A3 B|dc cBBA ^FG|
ABcB dc AB|G8|GB A2 A3 B|dc cBBA ^FG|
A4 A3 B|dccB BA^FG|ABcB dcAB|G8||

